!!!!SEGMENT: pl-wtm--r-730-4-m_moniuszko-stanislaw--slonce-skrylo-swietne-lica.krn
!!!cenid: 18xx:1681
!!!COM: Moniuszko, Stanisław
!!!COM-rismid: pe30008351
!!!CDT: 1819/05/05-1872/06/04
!!!CNT: Polish
!!!OTL: Słońce skryło świetne lica
!!!PDT:
!!!AGN: Secular
!!!SMS-siglum: PL-Wtm
!!!SMS-shelfmark: R 730/4/M
!!!SMS-shelfwork: W
!!!SMS-variant:
!!!SMS-altvar:
!!!NIFC-rismid: 1001099726
!!!URL-scan: http://repozytorium.nifc.pl/skany/pl-wtm-nut--r730m-1-43
!!!ONB-nifc: Skan 0011. No. 753
**kern	**kern	**kern	**text
*part2	*part2	*part1	*part1
*staff3	*staff2	*staff1	*staff1
*>[A,B,B]	*>[A,B,B]	*>[A,B,B]	*
*>A	*>A	*>A	*
*	*I"Fortepian	*I"Głos	*
*clefF4	*clefG2	*clefG2	*
*k[b-e-]	*k[b-e-]	*k[b-e-]	*
*g:	*g:	*g:	*
*M8/4	*M8/4	*M8/4	*
=1	=1	=1	=1
N(4.GG/	1ryy	1r	.
8BB-/	.	.	.
8D/L	.	.	.
8G/	.	.	.
8B-/	.	.	.
8d>/J	.	.	.
!	!	!LO:N:vis=2	!
1rD	8g/L	1r	.
.	8b-/	.	.
.	8dd/	.	.
.	8gg/J	.	.
.	8bb-/L	.	.
.	8ddd/	.	.
.	8ccc/	.	.
.	8bb-/JN)	.	.
=2	=2	=2	=2
!	!	!LO:N:vis=2	!
4C 4CC/	(8aa\L	1r	.
.	8gg\	.	.
4c 4G 4E-\	8ff#X\	.	.
.	8gg\J)	.	.
4c 4G 4E-\	8bb-'\L	.	.
.	8bb-'\	.	.
4c 4G 4E-\	8bb-'\	.	.
.	8bb-'\J	.	.
4E- 4EE-/	(8ff#\L	1r	.
.	8ee-\	.	.
4c 4G 4E-\	8dd\	.	.
.	8ee-\J)	.	.
4c 4G 4E-\	8gg'\L	.	.
.	8gg'\	.	.
4c 4G 4E-\	8gg'\	.	.
.	8gg'\J	.	.
=3	=3	=3	=3
4F 4FF/	(8dd\L	1r	.
.	8cc\	.	.
4e- 4A 4F\	8bn\	.	.
.	8cc\J)	.	.
4e- 4A 4F\	8ee-'\L	.	.
.	8ee-'\	.	.
4e- 4A 4F\	8ee-'\	.	.
.	8ee-'\J	.	.
4F 4FF/	(8b\L	1r	.
.	8a\	.	.
4e- 4A 4F\	8g#X\	.	.
.	8a\J)	.	.
4e- 4A 4F\	(8gg\L	.	.
.	8dd\)	.	.
8e-L 8A 8F\	8cc\	.	.
8f\J	8dd\J	.	.
=4	=4	=4	=4
4f 4B-\	4b-\	1r	.
4r	4r	.	.
4f 4B-\	4bb- 4dd\	.	.
4r	4r	.	.
2F 2BB-/	2b- 2d/	1r	.
!LO:TX:t=[segno]:problem:znak segno na kresce taktowej	!LO:TX:t=[segno]:problem:znak segno na kresce taktowej	!LO:TX:t=[segno]:problem:znak segno na kresce taktowej	!
2rBB	2rg	.	.
!!LO:LB:g=original
=5||	=5||	=5||	=5||
*>B	*>B	*>B	*
*	*^	*	*
4GG/	[<2g/	4r	2.g/	Słoń-
4D\	.	4B-\	.	.
*	*	*2\right	*	*
4A\	8g/L]	2c\	.	.
.	8f#X/	.	.	.
4D\	8a/	.	4f#X/	-ce
.	8d/J	.	.	.
4GG/	[<2g/	4r	2.g/	skry-
4D\	.	4B-\	.	.
4A\	8g/L]	2c\	.	.
.	8f#/	.	.	.
4D\	8a/	.	4f#/	-ło
.	8d/J	.	.	.
=6	=6	=6	=6	=6
4GG/	8g/L	4r	2..g/	Swiet-
.	8a/	.	.	.
4D\	8g/	4B-\	.	.
.	8f#X/J	.	.	.
4G\	4g/	4B-\	.	.
4D\	4a/	4B-\	.	.
.	.	.	8a/	-ne
4GG/	4b-/	4r	4b-/	li-
4G\	4b-/	4d 4B-\	4b-/	-ca
4GG/	4b-/	4r	4b-/	Czar-
4G\	4b-/	4en 4c#X\	4b-/	-na
=7	=7	=7	=7	=7
4FF/	4.b-/	4r	(4.b-/	Noc
4A\	.	4d\	.	.
.	8a/	.	8a/)	.
4EE-/	8a/L	4r	4r	.
.	8g/	.	.	.
4A\	8f#X/	4c#X\	8r	.
.	8g/J	.	8g/	roz-
4DD/	8g/L	4r	(4.g/	-wio-
.	8fn/	.	.	.
4A\	8en/	4d\	.	.
.	8f/J	.	8f/)	.
4AA/	8f/L	4r	(4.f/	-dła
.	8e/	.	.	.
4G\	8d#X/	4A\	.	.
.	8e/J	.	8e-/)	.
*	*v	*v	*	*
=8	=8	=8	=8
4F 4D\	4d 4A/	4d/	cienie
8.DD/L	8.dL 8.A 8.F/	4.r	.
16DD/Jk	16dJk 16A 16F/	.	.
4DD/	4d 4A 4F/	.	.
.	.	8ryy	.
4DD/	4d 4A 4F/	4ryy	.
4DD/	4en 4B- 4G/	1r	.
4D/	4e 4B- 4G/	.	.
4C/	4f 4c 4A/	.	.
!LO:SIC:v:s=4BBn	!	!	!
4BB-/	4g#X 4d 4Bn/	.	.
!!LO:LB:g=original
=9	=9	=9	=9
*	*^	*	*
4AA/	[<2a/	4r	2.a/	A
4En\	.	4c\	.	.
4Bn\	8a/L]	2d\	.	.
.	8g#X/	.	.	.
4E\	8bn/	.	4g#X/	uś-
!	!LO:SIC:v:s=8en	!	!	!
.	8e-/J	.	.	.
4AA/	[<2a/	4r	2.a/	-pio-
4E\	.	4c\	.	.
4B\	8a/L]	2d\	.	.
.	8g#/	.	.	.
4E\	8b/	.	4g#/	-ne
!	!LO:SIC:v:s=8en	!	!	!
.	8e-/J	.	.	.
=10	=10	=10	=10	=10
4AA/	8.a/L	4r	2.a/	przy-
.	16bn/K	.	.	.
!LO:SIC:v:s=4En	!	!	!	!
4E-\	8.a/	4c\	.	.
.	16g#X/Jk	.	.	.
4A\	4a/	4c\	.	.
!LO:SIC:v:s=4En	!	!	!	!
4E-\	4b/	4c\	4bn/	-ro-
4AA/	4cc/	4r	4cc\	-dze-
!LO:SIC:v:n=2:s=4En	!	!	!	!
4A 4E-\	4cc/	4c\	4cc\	-nie
4AA/	4cc/	4r	4cc\	ok-
4A 4F#X\	4cc/	4e-X 4c\	4cc\	-rył
=11	=11	=11	=11	=11
4GG/	[<2cc/	4re	[2cc/	Śrebr-
4G\	.	4en 4c\	.	.
4G\	8cc/L]	4e 4c\	8cc/L]	.
.	8bn/	.	8bn/J	.
4G\	8a/	4e 4c\	8a/L	-ny
.	8g/J	.	8g/J	.
4GG/	[<2g/	4r	[2g/	blask
4F\	.	4d 4Bn\	.	.
4F\	8g/L]	4d 4B\	8g/L]	.
.	8f/	.	8f/J	.
8F\L	8d/	4d 4B\	8d/L	Xię-
8G\J	8en/J	.	8en/J	.
*	*v	*v	*	*
=12	=12	=12	=12
!LO:SIC:v:n=1:s=4En	!	!	!
4E- 4C\	4c/	4c/	-życa
8.CL 8.CC\	8.cL 8.G</	4.r	.
16CJk 16CC\	16cJk 16G</	.	.
4C 4CC\	4c 4G</	.	.
.	.	8ryy	.
4C 4CC\	4c 4G</	4ryy	.
4GG 4GGG\	4d 4Bn 4G</	1r	.
4C 4CC\	4en 4c 4G</	.	.
!LO:SIC:v:s=4BBn 4BBBn	!	!	!
4BB- 4BBB-/	4f#X 4d#X 4B/	.	.
4E- 4EE-/	4g 4e 4B/	.	.
!!LO:PB:g=original
=13	=13	=13	=13
*	*^	*	*
!	!LO:N:vis=2	!	!	!
4D 4DD\	2.a/	4f#X 4A\	2.a/	Gdy
8.DL 8.DD\	.	8.f#L 8.A\	.	.
16DJk 16DD\	.	16f#Jk 16A\	.	.
4D 4DD\	.	4f# 4A\	.	.
4D 4DD\	4g#X/	4en 4G#X\	4g#X/	w_głę-
4D 4DD\	4a/	4f# 4A\	4a/	-bo-
4D 4DD\	4g#/	4e 4G#\	4g#/	-kiem
4D 4DD\	4a/	4f# 4A\	4a/	za-
!	!	!LO:SIC:v:n=2:s=4Bn	!	!
4D 4DD\	4bn/	4fn 4B-\	4bn/	-myś-
=14	=14	=14	=14	=14
4En 4EEn\	2.cc/	4en 4c\	(2.cc/	-le-
8.EL 8.EE\	.	8.eL 8.c\	.	.
16EJk 16EE\	.	16eJk 16c\	.	.
4E 4EE\	.	4e 4c\	.	.
!	!LO:SIC:v:s=4bn	!	!	!
4E 4EE\	4b-/	4g#X 4d\	4bn/)	.
4E 4AA\	4a/	4a 4c\	4a/	-niu
4A 4AA\	4r	4e 4c\	4r	.
4A 4AA\	2r	4e 4c\	2rg	.
4A 4AA\	.	4e 4c\	.	.
=15	=15	=15	=15	=15
4En 4AA\	2.en/	4c\	2.en/	Sto-
8.EL 8.AA\	.	8.c\L	.	.
16EJk 16AA\	.	16c\Jk	.	.
4E 4AA\	.	4c\	.	.
4F#X 4AA\	4d#X/	4Bn\	4d#X/	-iąc
4E 4AA\	4e/	4c\	4e/	nad
4F# 4AA\	4d#/	4B\	4d#/	brze-
4E 4AA\	4e/	4c\	4e/	-giem
4D#X 4AA\	4f#X/	8B\L	4f#X/	stru-
.	.	8A\J	.	.
=16	=16	=16	=16	=16
4En\	2.g/	4G\	(2.g/	-my-
8.E\L	.	4Bn\	.	.
16E\Jk	.	.	.	.
!LO:SIC:v:s=4BBn	!	!	!	!
4BB-/	.	4A\	.	.
4A\	4f#X/	4B\	4f#X/)	.
!LO:SIC:v:n=1:s=4Bn	!LO:SIC:v:s=2.en	!	!LO:SIC:v:s=4en	!
4B- 4E\	2.e-/	4G\	4e-/	-ka
4r	.	4B\	4r	.
!	!	!LO:SIC:v:s=4en	!	!
4r	.	4e-\	2rg	.
4c 4D\	4a 4f#X/	4d\	.	.
*	*v	*v	*	*
!!LO:LB:g=original
=17	=17	=17	=17
*	*	*2\right	*
4GG/	(8Bn/L	2.bn\	Nurt
.	8c#X/	.	.
4D\	8d/	.	.
.	8f#X/J	.	.
!LO:SIC:v:s=4Bn	!	!	!
4B-\	8g/L	.	.
.	8bn/)	.	.
4D\	(8B/	4b\	co
.	8c#X/J	.	.
4GG/	8d/L	4b\	szyb-
.	8f#/	.	.
4D\	8g/	4b\	-kim
.	8b/J)	.	.
!LO:SIC:v:s=4Bn	!	!	!
4B-\	(8B/L	4b\	pę-
.	8c#/	.	.
4D\	8d/	4b\	-dem
.	8f#/J)	.	.
=18	=18	=18	=18
4GG/	8g\L	4r	.
.	8bn\J	.	.
4D\	[4een\	[4een\	zni-
!LO:SIC:v:s=4Bn	!	!	!
4B-\	8ee\L]	8ee\L]	.
.	8dd\	8dd\J	.
4D\	8a#X\	8a#X\L	-ka
!	!	!LO:SIC:v:s=8bn	!
.	8b\J	8b-\J	.
4GG/	8dd\L	8dd\	smut-
.	8cc\J	8cc\	-nem
4D\	[4g#X/	[4g#X/	pol-
4c\	8g#/L]	8g#/]	.
.	8a#/	8a#/	-ka
4D\	8b/	8dd\	ści-
!	!LO:SIC:v:s=8an	!	!
.	8a#/J	8cc\	-ga
!!LO:LB:g=original
=19	=19	=19	=19
!	!	!LO:SIC:v:s=4bn	!
4GG/	(8Bn/L	4b-\	o-
.	8c#X/	.	.
!	!	!LO:SIC:v:s=4bn	!
4D\	8d/	4b-\	-kiem
.	8f#X/J	.	.
!LO:SIC:v:s=4Bn	!	!LO:SIC:v:s=4bn	!
4B-\	8g/L	4b-\	nurt
.	8bny/)	.	.
!	!	!LO:SIC:v:s=4bn	!
4D\	(8B/	4b-\	co
.	8c#X/J	.	.
!	!	!LO:SIC:v:s=4bn	!
4GG/	8d/L	4b-\	szyb-
.	8f#/	.	.
!	!	!LO:SIC:v:s=4bn	!
4D\	8g/	4b-\	-kim
.	8bny/J)	.	.
!LO:SIC:v:s=4Bn	!	!LO:SIC:v:s=4bn	!
4B-\	(8B/L	4b-\	pę-
.	8c#/	.	.
!	!	!LO:SIC:v:s=4bn	!
4D\	8d/	4b-\	-dem
.	8f#/J)	.	.
=20	=20	=20	=20
4GG/	8g\L	4r	.
.	8bn\J	.	.
4D\	[4een\	[4een\	Zni-
!LO:SIC:v:s=Bn	!	!	!
4B-\	8ee\L]	8ee\L]	.
.	8dd\	8dd\J	.
4D\	8a#X\	8a#X/L	-ka
!	!	!LO:SIC:v:s=8bn	!
.	8b\J	8b-/J	.
4GG/	8dd\L	8dd\	smut-
.	8cc\J	8cc\	-nem
4D\	[4g#X/	[4g#X/	pol-
4c\	8g#/L]	8g#/]	.
.	8a#/	8a#/	-ka
!	!	!LO:SIC:v:s=8bn	!
4D\	8b/	8b-\	ści-
!	!LO:SIC:v:s=8an	!LO:SIC:v:s=8an	!
.	8a#/J	8a#\	-ga
=21	=21	=21	=21
!	!LO:TX:t=P:problem:mixed beam	!	!
8GG/L	8g/L	16g/	o-
.	.	16g/	-kiem
8D/	8een\J	8een\	nurt
8Bn/	4.dd\	4dd\	co
8D/J	.	.	.
8GG/L	.	8dd\	szyb-
8D/	8cc\L	8cc\	-kim
8c/	8a\	8a\	pę-
8D/J	8bn\J	8bn\	-dem
!	!LO:TX:t=P:problem:mixed beam	!	!
8GG/L	8g/L	16g/	zni-
.	.	16g/	-ka
8D/	8ee-X\J	8ee-X\	smut-
8B-X/	4.dd\	4dd\	-nem
8D/J	.	.	.
8GG/L	.	(8dd\L	ści-
8D/	8cc\L	8cc\J)	.
8c/	8a\	(8a\L	-ga
8D/J	8b-X\J	8b-X\J)	.
=22	=22	=22	=22
4.GG/	8g 8B-X/	4g/	okiem.
.	8r	.	.
!	!	!LO:N:vis=4.	!
.	4.r	4r	.
8BB-/	.	.	.
N(8DL	.	2rg	.
8G\	8ryy	.	.
8B-\	4ryy	.	.
8d\J	.	.	.
1ryy	8g\L	1r	.
.	8b-\	.	.
.	8dd\	.	.
.	8gg\J	.	.
.	8bb-\L	.	.
.	8ddd\	.	.
.	8bb-\	.	.
.	8aa\JN)	.	.
=23	=23	=23	=23
!LO:N:vis=1	!	!	!
2rD	8gg\	1r	.
.	8r	.	.
.	4r	.	.
4D 4GG/	4g 4B-/	.	.
4r	4r	.	.
!LO:N:vis=2	!	!	!
!LO:TX:t=[segno]:problem:znak segno na kresce taktowej	!LO:TX:t=[segno]:problem:znak segno na kresce taktowej	!LO:TX:t=[segno]:problem:znak segno na kresce taktowej	!
1rBB	1rb	1r	.
==	==	==	==
*-	*-	*-	*-
!!!system-decoration: [<s1>p2]
!!!RDF**kern: > = above
!!!RDF**kern: < = below
!!!RDF**kern: N = linked
!!!ENC: Andrzej Kubiczek
!!!END: 2021-04-21
!!!ENC: Marcin Jachim
!!!END: 2021-04-01
